packages/core/src/svgs/tokens/mono/LBT.svg

<svg width="24" height="24" viewBox="0 0 24 24" fill="none" xmlns="http://www.w3.org/2000/svg">
<path d="M3.13316 4.8109H17.4866C18.6626 4.80259 19.794 5.2614 20.6321 6.08658C21.4701 6.91177 21.9465 8.03585 21.9565 9.21196C21.9565 10.356 21.3813 11.3688 20.4998 11.9875C20.9587 12.2943 21.3355 12.7089 21.5972 13.1949C21.8587 13.6809 21.997 14.2238 22.0001 14.7758C21.9772 15.9597 21.4885 17.0869 20.6401 17.9131C19.7918 18.7392 18.652 19.1978 17.4678 19.1893H14.4984V16.6887H16.9364C17.9366 16.6887 18.8744 15.9199 18.8744 14.9383C18.8744 14.1881 17.7117 13.5629 16.9364 13.5629H9.80974L10.2599 12.444L10.985 10.4373H17.4741C18.2492 10.4373 18.8744 10.0059 18.8744 9.24946C18.8744 8.26173 18.0616 7.3115 17.0614 7.3115H2.04541L3.13942 4.8109H3.13316Z" fill="white"/>
<path d="M14.4355 3.56055H15.7483L15.1857 4.81084H13.8728L14.4355 3.56055ZM6.93374 19.1893H8.24655L7.68392 20.4395H6.37109L6.93374 19.1893ZM16.311 3.56055H17.6238L17.0611 4.81084H15.7483L16.311 3.56055ZM8.80917 19.1893H10.122L9.55939 20.4395H8.24655L8.80917 19.1893Z" fill="white"/>
<path d="M9.49689 9.18701H6.37117L2.04515 18.4892C2.01051 18.5645 1.9954 18.6474 2.00122 18.7302C2.00704 18.8129 2.03359 18.8929 2.07844 18.9626C2.12328 19.0323 2.18498 19.0896 2.25783 19.1293C2.33067 19.169 2.41233 19.1896 2.49526 19.1894H13.2479V16.6888H7.14012C7.05665 16.6901 6.97422 16.6703 6.90053 16.631C6.82684 16.5918 6.76427 16.5346 6.7187 16.4646C6.67312 16.3947 6.64602 16.3144 6.63991 16.2312C6.63379 16.1479 6.64888 16.0645 6.68375 15.9886L9.49689 9.18701Z" fill="white"/>
</svg>

<svg xmlns="http://www.w3.org/2000/svg" width="24" height="24" fill="none" viewBox="0 0 24 24">
    <path fill="#fff" d="M3.133 4.81h14.354a4.44 4.44 0 0 1 4.47 4.402 3.39 3.39 0 0 1-1.457 2.776 3.38 3.38 0 0 1 1.5 2.788 4.5 4.5 0 0 1-4.532 4.413h-2.97v-2.5h2.438c1 0 1.938-.77 1.938-1.75 0-.75-1.162-1.376-1.938-1.376H9.81l.45-1.119.725-2.007h6.49c.774 0 1.4-.431 1.4-1.188 0-.987-.813-1.938-1.814-1.938H2.045l1.094-2.5z"/>
    <path fill="#fff" d="M14.436 3.56h1.312l-.562 1.25h-1.313zM6.934 19.19h1.313l-.563 1.25H6.37zM16.31 3.56h1.313l-.563 1.25h-1.313zM8.809 19.19h1.313l-.563 1.25H8.247zm.688-10.003H6.37l-4.326 9.302a.494.494 0 0 0 .45.7h10.753v-2.5H7.14a.493.493 0 0 1-.456-.7z"/>
</svg>
